icons/share-forward-box-fill.svg

<svg xmlns="http://www.w3.org/2000/svg" width="24" height="24" fill="none"><g clip-path="url(#a)"><g><path fill="#121212" d="M9 3V5H4V19H20V10H22V20C22 20.2652 21.8946 20.5196 21.7071 20.7071C21.5196 20.8946 21.2652 21 21 21H3C2.73478 21 2.48043 20.8946 2.29289 20.7071C2.10536 20.5196 2 20.2652 2 20V4C2 3.73478 2.10536 3.48043 2.29289 3.29289C2.48043 3.10536 2.73478 3 3 3H9ZM16 5V1L23 7H14C13.4696 7 12.9609 7.21071 12.5858 7.58579C12.2107 7.96086 12 8.46957 12 9V15H10V9C10 7.93913 10.4214 6.92172 11.1716 6.17157C11.9217 5.42143 12.9391 5 14 5H16Z"/></g></g><defs><clipPath id="a"><rect width="24" height="24" fill="white"/></clipPath></defs></svg>

<svg width="24" height="24" fill="none" xmlns="http://www.w3.org/2000/svg"><g clip-path="url(#a)"><path d="M9 3v2H4v14h16v-9h2v10a1 1 0 0 1-1 1H3a1 1 0 0 1-1-1V4a1 1 0 0 1 1-1h6Zm7 2V1l7 6h-9a2 2 0 0 0-2 2v6h-2V9a4 4 0 0 1 4-4h2Z" /></g><defs><clipPath id="a"><path fill="#fff" d="M0 0h24v24H0z"/></clipPath></defs></svg>
